X:1
T:Confidence (Rodeheaver), 10.10.10.10 D
T:Confidence (Rodeheaver), 10.10.10.10 D
T:Homer Alvan Rodeheaver, 1911
T:Public Domain Courtesy of the Cyber Hymnal™
C:Homer Alvan Rodeheaver, 1911
Z:Public Domain
Z:Courtesy of the Cyber Hymnal™
%%score ( 1 2 ) ( 3 4 )
L:1/8
Q:1/4=100
M:4/4
K:Ab
V:1 treble 
V:2 treble 
V:3 bass 
V:4 bass 
V:1
 [Cc]2 [DA]>[DF] [CE]3 [CE] | [DF][Fd] [FA]>[FB] [Ec]4 | [EB]2 [EB]>[Ac] [Gd]3 [DG] | %3
 [CB][CA] [=Dc]>[DB] [EB]4 | c2 [=Dc]>[B,F] [CE]3 [CE] | [DF][Fd] [FA]>[FB] [=Ec]4 | %6
 [Fe]2 [Fd][Fc] F[=EG][FA][_Fd] | [Ec]2 [DB]>[CA] [CA]4 | [EB]2 [EB]>[Ac] [Gd]3 [EG] | %9
 [EA][EG][EA][EB] [Ec]4 | [A=d]2 [Ad]>[Ac] [AB]3 [Ac] | [A=d][Af][Ac][Ad] [Ge]4 | %12
 c2 [=B,A]>[B,F] [CE]3 [CE] | [DF][Fd] [FA]>[FB] [=Ec]4 | [Fe]2 [Fd][Fc] F[=EG][FA][_Fd] | %15
 [Ec]2 [DB]>[CA] [CA]6 |] %16
V:2
 x8 | x8 | x8 | x8 | (EC) x6 | x8 | x8 | x8 | x8 | x8 | x8 | x8 | (EC) x6 | x8 | x8 | x10 |] %16
V:3
 [A,,E,]2 [A,,F,]>[A,,G,] [A,,A,]3 [A,,A,] | [D,A,][D,A,] [D,A,]>[D,A,] [A,,A,]4 | %2
 [E,G,]2 [E,G,]>[E,A,] [E,B,]3 [E,B,] | [F,A,][F,A,] [B,,A,]>[B,,A,] [E,G,]4 | %4
 (A,E,) [A,,=D,]>[A,,F,] [A,,A,]3 [A,,A,] | [D,A,][D,A,] [D,A,]>[D,F,] [C,G,]4 | %6
 [B,,B,]2 [B,,B,][C,=A,] [D,B,][D,B,][D,_A,][D,A,] | [E,A,]2 [E,G,]>[A,,A,] [A,,A,]4 | %8
 [E,G,]2 [E,G,]>[E,A,] [E,B,]3 [D,B,] | [C,A,][B,,B,][C,A,][E,G,] A,4 | %10
 [F,B,]2 [B,,F]>[C,F] [=D,F]3 [C,E] | [B,,F][B,,B,][B,,B,][B,,B,] [E,B,]4 | %12
 (A,E,) [A,,=D,]>[A,,F,] [A,,A,]3 [A,,A,] | [D,A,][D,A,] [D,A,]>[D,F,] [C,G,]4 | %14
 [B,,B,]2 [B,,B,][C,=A,] [D,B,][D,B,][D,_A,][D,A,] | [E,A,]2 [E,G,]>[A,,A,] [A,,A,]6 |] %16
V:4
 x8 | x8 | x8 | x8 | A,,2 x6 | x8 | x8 | x8 | x8 | x8 | x8 | x8 | A,,2 x6 | x8 | x8 | x10 |] %16

